src/symbolic/emblems/emblem-documents-symbolic.svg

<svg xmlns="http://www.w3.org/2000/svg" width="16" height="16"><path d="M6 1c-.554 0-1 .446-1 1v1h4l4 4v6h1c.554 0 1-.446 1-1V5l-4-4H6z" fill="#444"/><path d="M3 4c-.554 0-1 .446-1 1v10c0 .554.446 1 1 1h8c.554 0 1-.446 1-1V8L8 4H3z" fill="#444"/></svg>

<svg xmlns="http://www.w3.org/2000/svg" width="16" height="16" version="1.1">
 <path style="fill:#444444" d="M 6 1 C 5.446 1 5 1.446 5 2 L 5 3 L 9 3 L 13 7 L 13 13 L 14 13 C 14.554 13 15 12.554 15 12 L 15 5 L 11 1 L 6 1 z"/>
 <path style="fill:#444444" d="M 3 4 C 2.446 4 2 4.446 2 5 L 2 15 C 2 15.554 2.446 16 3 16 L 11 16 C 11.554 16 12 15.554 12 15 L 12 8 L 8 4 L 3 4 z"/>
</svg>
